X:1
T:Len's Waltz
C:Carol Sandler
M:3/4
L:1/4
Z:SG
K:G
"G"GB>A|BGB|"C"e>d c/d/|"G"B2z/B/|
"Bm"d>c d|"Am"c>BA|"C"cBA/E/|"D"F2D|
"G"B>A B/d/|"Bm"dBd|"C"e>d c/d/|"G"BGG|
"Bm"B<d d|"Am"A2z/B/|"D"BA>E|"G"G3||
|:"C"d<e e|"Am"c2 B/c/|"D"c<dd/c/|"G"c<B A/B/|
"Am"c>B A/G/|"C"E3|"D"E<F E/F/|"G"G3:|]
